X: 1038
T: the Berks of Abergelde
P: Longways for &c.
R: reel
B: "Caledonian Country Dances" printed by John Walsh for John Johnson, London
S: http://imslp.org/wiki/Caledonian_Country_Dances_with_a_Thorough_Bass_(Various)
Z: 2013 John Chambers <jc:trillian.mit.edu>
M: C|
L: 1/16
K: F
% - - - - - - - - - - - - - - - - - - - - - - - - -
V: 1
|:\
F3G A2c2 f4 e2d2 | f4 e2d2 efg2 c2c2 |\
F3G A2c2 f3g a2g2 | f2d2c2A2 GGG2 d4 :|
|:\
F3G A2B2 c2F2 ABcA | c2F2 ABcA dcBA G2d2 |\
F3G A2c2 f3g a2g2 | f2d2 c2A2 GGG2 d4 :|
% - - - - - - - - - - - - - - - - - - - - - - - - -
V: 2 clef=bass middle=d
|:\
f4 F4 A4 B4 | A4 B4 c4 c'4 |\
f4 F4 A4 c4 | d4 A4 G8 :|
|:\
f4 z4 F4 z4 | f4 z4 B4 G4 |\
F4 f4 A4 c4 | d4 A4 G8 :|
% - - - - - - - - - - - - - - - - - - - - - - - - -
%%begintext align
The 1st Cu foot it cast off and turn .|
1st Cu. foots it again cast up and turn :|
the 1st ?? 2d Cu. hands across quite round with their right hands .|
Back again with their left hands :#:
1st Man foots it with the 2d Wo. and turns her .|
their Partners do the same :|
the 1st Cu. cross over and half figure at top .|
First and 2d Cu. right and left quite round.
%%endtext
